Betaversie/Icons/file-multiple.svg

﻿<?xml version="1.0" encoding="utf-8"?>
<!DOCTYPE svg PUBLIC "-//W3C//DTD SVG 1.1//EN" "http://www.w3.org/Graphics/SVG/1.1/DTD/svg11.dtd">
<svg xmlns="http://www.w3.org/2000/svg" xmlns:xlink="http://www.w3.org/1999/xlink" version="1.1" baseProfile="full" width="24" height="24" viewBox="0 0 24.00 24.00" enable-background="new 0 0 24.00 24.00" xml:space="preserve">
	<path fill="#000000" fill-opacity="1" stroke-width="0.2" stroke-linejoin="round" d="M 15,11C 13.3431,11 12,9.65686 12,8L 12,4.00001L 8,4.00001C 6.89543,4.00001 6,4.89544 6,6.00001L 6,19C 6,20.1046 6.89543,21 8,21L 17,21C 18.1046,21 19,20.1046 19,19L 19,11L 15,11 Z M 13,8C 13,9.10457 13.8954,10 15,10L 18.5858,10L 13,4.41421L 13,8 Z M 8,3L 13,3.00001L 20,10L 20,19C 20,20.6569 18.6569,22 17,22L 8,22C 6.34314,22 5,20.6569 5,19L 5,6C 5,4.34315 6.34314,3 8,3 Z M 8,24C 5.23858,24 3,21.7614 3,19L 2.99999,7L 4,7L 4.00001,19C 4.00001,21.2091 5.79087,23 8.00001,23L 16,23L 16,24L 8,24 Z "/>
</svg>

<?xml version="1.0" encoding="utf-8"?>
<!-- Generator: Adobe Illustrator 22.0.1, SVG Export Plug-In . SVG Version: 6.00 Build 0)  -->
<svg version="1.1" id="Layer_1" xmlns="http://www.w3.org/2000/svg" xmlns:xlink="http://www.w3.org/1999/xlink" x="0px" y="0px"
	 viewBox="0 0 24 24" style="enable-background:new 0 0 24 24;" xml:space="preserve">
<style type="text/css">
	.st0{fill:#FFFFFF;}
</style>
<path class="st0" d="M15,11c-1.7,0-3-1.3-3-3V4H8C6.9,4,6,4.9,6,6v13c0,1.1,0.9,2,2,2h9c1.1,0,2-0.9,2-2v-8H15z M13,8
	c0,1.1,0.9,2,2,2h3.6L13,4.4V8z M8,3l5,0l7,7v9c0,1.7-1.3,3-3,3H8c-1.7,0-3-1.3-3-3V6C5,4.3,6.3,3,8,3z M8,24c-2.8,0-5-2.2-5-5L3,7
	h1l0,12c0,2.2,1.8,4,4,4h8v1H8z"/>
</svg>
